X:1
T:Title
%%score { ( 1 4 5 ) | ( 2 3 ) }
L:1/8
M:4/4
K:A
V:1 treble nm="Grand Piano"
V:4 treble 
V:5 treble 
V:2 treble 
V:3 treble 
V:1
 z4 z2[Q:1/4=112] AA | A2 E2 C2 E2 | A4 A2 cc | c2 B2 A2 B2 | c4 c2 ee | e2 [Ge]2 [Ae]2 [Ge]2 | %6
 [Ae]4 [Ae]2 [Fd][FB] | A2 A2 c2 B2 | [A,CA]6 z2 | z8 | z4 z2 cc | c2 B2 A2 B2 | c4 c2 ee | %13
 e2 [Ge]2 [Ae]2 [Ge]2 | [Ae]4 [Ae]2 [Fd][FB] | A2 A2 c2 B2 |[M:3/4] [CA]6 |[M:1/4] [CA][DG] | %18
[M:4/4] [A,DF]2 [A,DF]2 [A,FA]2 [A,DF]2 | [CE]6 [A,CA][A,EG] | %20
 [A,DF]2 [A,DF]2 [A,EA][B,EG][A,EA][EAc] |[M:3/4] [EGB]6 |[M:1/4] [Ac][Bd] | %23
[M:4/4] [ce]6 [Bd][Ac] | [Bd]6 [EAc][GB] | [EAc]2 [EA]2 [ce]2 [Ac]2 | [EAc]3 [GB] [EGB]2 [Ac][Bd] | %27
 [ce]6 z2 | z8 | [EAc]2 [CEA]2 [DEB]2 [B,EG]2 |[M:3/4] [A,CEA]3 [CEA] [CEA]2 |] %31
V:2
 z8 | z8 | z4 z2 AA | A2 E2 C2 E2 | A4 A2 [A,CA][A,CA] | [A,CA]2[K:bass] [E,B,]2 [C,A,]2 [E,B,]2 | %6
 [A,C]4 [A,C]2 [D,B,][D,D] | [E,CE]2 [E,A,C]2 [E,A,E]2 [E,G,D]2 | A,,6[K:treble] AA | A2 E2 C2 E2 | %10
 A4 A2 AA | A2 E2 C2 E2 | A4 A2 [A,CA][A,CA] | [A,CA]2[K:bass] [E,B,]2 [C,A,]2 [E,B,]2 | %14
 [A,C]4 [A,C]2 [D,B,][D,D] | [E,CE]2 [E,A,C]2 [E,A,E]2 [E,G,D]2 |[M:3/4] [A,,A,]6 | %17
[M:1/4] [A,,A,][A,,A,] |[M:4/4] D,2 D,2 D,E,F,G, | A,6 z2 | D,2 D,2 C,D,C,A,, |[M:3/4] E,4- E,D, | %22
[M:1/4] C,B,, |[M:4/4] A,,2 A,A, A,2 E,E, | B,4 z2 E,2 | A,,2 C2 [A,,A,]2 C2 | E,2 z E E,2 A,A, | %27
 A,2 A,,A,, A,,2 E,E, | E,2 E,E, E,2 E,E, | A,2 A,2 E,2 E,2 |[M:3/4] A,,3 A,, A,,2 |] %31
V:3
 x8 | x8 | x8 | x8 | x8 | x2[K:bass] x6 | x8 | x8 | x6[K:treble] x2 | x8 | x8 | x8 | x8 | %13
 x2[K:bass] x6 | x8 | x8 |[M:3/4] x6 |[M:1/4] x2 |[M:4/4] x8 | z2 E,2 C,2 A,,A,, | x8 |[M:3/4] x6 | %22
[M:1/4] x2 |[M:4/4] x8 | E,2 E,E, E,2 z E | x8 | x8 | x8 | x8 | x8 |[M:3/4] x6 |] %31
V:4
 x8 | x8 | x8 | x8 | x8 | x8 | x8 | x8 | x8 | x8 | x8 | x8 | x8 | x8 | x8 | x8 |[M:3/4] x6 | %17
[M:1/4] x2 |[M:4/4] x8 | x8 | x8 |[M:3/4] x6 |[M:1/4] x2 |[M:4/4] x8 | x8 | x8 | x8 | %27
 z2 EE z2 [Bd][Ac] | [Bd]6 [EAc][EGB] | x8 |[M:3/4] x6 |] %31
V:5
 x8 | x8 | x8 | x8 | x8 | x8 | x8 | x8 | x8 | x8 | x8 | x8 | x8 | x8 | x8 | x8 |[M:3/4] x6 | %17
[M:1/4] x2 |[M:4/4] x8 | x8 | x8 |[M:3/4] x6 |[M:1/4] x2 |[M:4/4] x8 | x8 | x8 | x8 | z4 E4- | %28
 E6 z2 | x8 |[M:3/4] x6 |] %31

